teeny/outline/wordpress.svg

<svg width="15" height="15" viewBox="0 0 15 15" fill="none" xmlns="http://www.w3.org/2000/svg">
<path d="M5.5 13.5L5.02109 13.6437C5.08435 13.8545 5.27809 13.9992 5.49824 14C5.71839 14.0008 5.91315 13.8575 5.97789 13.647L5.5 13.5ZM9.5 13.5L9.02109 13.6437C9.08218 13.8473 9.26536 13.99 9.47775 13.9995C9.69013 14.009 9.88528 13.8831 9.96424 13.6857L9.5 13.5ZM13.0307 4.67313L13.495 4.85883L13.0307 4.67313ZM12.4892 2.7419L12.1892 3.1419L12.1892 3.1419L12.4892 2.7419ZM12.3571 2.64286L12.6571 2.24286L12.6571 2.24286L12.3571 2.64286ZM10.3571 4.64286L10.7571 4.34286L10.7571 4.34286L10.3571 4.64286ZM10.6429 2.64286L10.3429 2.24286L10.6429 2.64286ZM7.5 14C3.91015 14 1 11.0899 1 7.5H0C0 11.6421 3.35786 15 7.5 15V14ZM14 7.5C14 11.0899 11.0899 14 7.5 14V15C11.6421 15 15 11.6421 15 7.5H14ZM7.5 1C11.0899 1 14 3.91015 14 7.5H15C15 3.35786 11.6421 0 7.5 0V1ZM7.5 0C3.35786 0 0 3.35786 0 7.5H1C1 3.91015 3.91015 1 7.5 1V0ZM2.02109 3.64367L5.02109 13.6437L5.97891 13.3563L2.97891 3.35633L2.02109 3.64367ZM5.97789 13.647L7.97789 7.14704L7.02211 6.85296L5.02211 13.353L5.97789 13.647ZM6.02109 3.64367L9.02109 13.6437L9.97891 13.3563L6.97891 3.35633L6.02109 3.64367ZM12.7892 2.3419L12.6571 2.24286L12.0571 3.04286L12.1892 3.1419L12.7892 2.3419ZM9.95714 4.94286L10.6 5.8L11.4 5.2L10.7571 4.34286L9.95714 4.94286ZM10.3429 2.24286C9.49076 2.88193 9.31807 4.09076 9.95714 4.94286L10.7571 4.34286C10.4494 3.93259 10.5326 3.35056 10.9429 3.04286L10.3429 2.24286ZM12.6571 2.24286C11.9714 1.72857 11.0286 1.72857 10.3429 2.24286L10.9429 3.04286C11.273 2.79524 11.727 2.79524 12.0571 3.04286L12.6571 2.24286ZM13.495 4.85883C13.8558 3.95677 13.5664 2.92483 12.7892 2.3419L12.1892 3.1419C12.6047 3.45353 12.7594 4.0052 12.5665 4.48744L13.495 4.85883ZM2 4H4V3H2V4ZM5 4H8V3H5V4ZM9.96424 13.6857L13.495 4.85883L12.5665 4.48744L9.03576 13.3143L9.96424 13.6857Z" fill="black"/>
</svg>

<svg viewBox="0 0 15 15" xmlns="http://www.w3.org/2000/svg"><path d="M5.5 13.5l-.48.14c.06.21.25.35.47.35 .22 0 .41-.15.47-.36l-.48-.15Zm4 0l-.48.14c.06.2.24.34.45.35 .21 0 .4-.12.48-.32l-.47-.19Zm3.53-8.83l.46.18 -.47-.19Zm-.55-1.94l-.3.4v0l.3-.4Zm-.14-.1l.3-.4v0l-.3.4Zm-2 2l.4-.3v0l-.4.3Zm.28-2l-.3-.4 .3.4ZM7.47 13.98c-3.59 0-6.5-2.92-6.5-6.5h-1c0 4.14 3.35 7.5 7.5 7.5v-1Zm6.5-6.5c0 3.58-2.92 6.5-6.5 6.5v1c4.14 0 7.5-3.36 7.5-7.5h-1ZM7.47.98c3.58 0 6.5 2.91 6.5 6.5h1c0-4.15-3.36-7.5-7.5-7.5v1Zm0-1c-4.15 0-7.5 3.35-7.5 7.5h1c0-3.59 2.91-6.5 6.5-6.5v-1ZM1.99 3.62l3 10 .95-.29 -3-10 -.96.28Zm3.95 10l2-6.5 -.96-.3 -2 6.5 .95.29Zm.04-10.01l3 10 .95-.29 -3-10 -.96.28Zm6.76-1.31l-.14-.1 -.6.8 .13.09 .6-.8ZM9.9 4.9l.64.85 .8-.6 -.65-.86 -.8.6Zm.38-2.7c-.86.63-1.03 1.84-.39 2.7l.79-.6c-.31-.42-.23-1 .18-1.3l-.6-.8Zm2.31 0c-.69-.52-1.63-.52-2.32 0l.6.8c.33-.25.78-.25 1.11 0l.6-.8Zm.83 2.61c.36-.91.07-1.94-.71-2.52l-.6.8c.41.31.57.86.37 1.34l.92.37Zm-11.5-.86h2v-1h-2v1Zm3 0h3v-1h-3v1Zm4.96 9.68l3.53-8.83 -.93-.38 -3.54 8.82 .92.37Z"/></svg>
